lib/preview_tmp/nrk-logo-preview-nrk-tegnspraak-symbol-with-bg.svg

<svg width="76" height="28" viewBox="0 0 76 28" fill="none" xmlns="http://www.w3.org/2000/svg">
<rect width="75.3333" height="28" fill="#1767CE"/>
<path d="M6.66675 21V7.00123H11.2601V21H6.66675ZM17.5095 9.2292L20.1512 21H15.1241L11.9698 7.00123H14.7893C15.4358 6.99284 16.0632 7.22075 16.5537 7.64208C17.045 8.04574 17.3825 8.60611 17.5095 9.2292ZM20.8412 21V7.00123H25.4346V21H20.8412ZM28.904 12.3247C28.409 12.3296 27.922 12.2001 27.4947 11.9501C27.0732 11.7064 26.723 11.3562 26.4794 10.9347C26.2292 10.5073 26.0996 10.0202 26.1045 9.525C26.0989 9.03283 26.2285 8.54857 26.4794 8.12512C26.7256 7.70811 27.0754 7.36174 27.4947 7.11957C27.9221 6.86988 28.409 6.74039 28.904 6.74491C29.396 6.73961 29.8801 6.86921 30.3037 7.11957C30.7188 7.36386 31.0648 7.70995 31.3091 8.12512C31.5597 8.54869 31.6893 9.03287 31.684 9.525C31.6886 10.0201 31.5591 10.5072 31.3091 10.9347C31.0674 11.3544 30.721 11.7043 30.3037 11.9501C29.88 12.2009 29.3956 12.3306 28.9033 12.3247H28.904ZM32.3936 21V7.00123H36.9874V21H32.3936ZM42.8028 14.6512C42.8157 14.6648 42.9142 14.8258 43.0985 15.1343C43.2827 15.4427 43.5225 15.8371 43.818 16.3173C44.1137 16.7973 44.4258 17.3066 44.7541 17.8453C45.0825 18.384 45.3915 18.8934 45.681 19.3734C45.9695 19.8534 46.2981 20.3955 46.6667 21H41.6199C41.3042 20.4873 41.0183 20.024 40.762 19.61C40.5057 19.1959 40.2333 18.749 39.9446 18.2692C39.6552 17.7899 39.3691 17.3233 39.0863 16.8693C38.8035 16.4154 38.5605 16.0178 38.3572 15.6765C38.1531 15.335 38.0117 15.1049 37.933 14.9864C37.738 14.6923 37.6227 14.3526 37.5982 14.0006C37.6177 13.6627 37.7265 13.3361 37.9133 13.0539C37.9922 12.9225 38.1368 12.6891 38.347 12.3539C38.5573 12.0188 38.8037 11.6212 39.0863 11.1611C39.3689 10.7011 39.655 10.2312 39.9446 9.7514C40.2341 9.27163 40.5066 8.8214 40.762 8.40078C41.0187 7.9806 41.3047 7.51398 41.6199 7.00091H46.6667L42.763 13.3694C42.6422 13.5585 42.5741 13.7764 42.5658 14.0006C42.5788 14.236 42.661 14.4623 42.8021 14.6512H42.8028Z" fill="white"/>
<path fill-rule="evenodd" clip-rule="evenodd" d="M66.8759 21.5424C68.8763 19.5421 70.0001 16.829 70.0001 14C70.0001 11.171 68.8763 8.4579 66.8759 6.45751C64.8755 4.45712 62.1624 3.33331 59.3334 3.33331C56.5044 3.33331 53.7913 4.45712 51.7909 6.45751C49.7906 8.4579 48.6667 11.171 48.6667 14C48.6667 16.829 49.7906 19.5421 51.7909 21.5424C53.7913 23.5428 56.5044 24.6666 59.3334 24.6666C62.1624 24.6666 64.8755 23.5428 66.8759 21.5424ZM63.2631 9.29409L59.8434 11.1458L59.8447 11.1434C59.7967 11.1696 59.761 11.2137 59.7453 11.266C59.7297 11.3184 59.7353 11.3749 59.7611 11.4231L59.7744 11.4474C59.8005 11.4955 59.8446 11.5313 59.897 11.5469C59.9494 11.5625 60.0059 11.5567 60.0541 11.5308L62.4854 10.2167C62.6006 10.1505 62.7372 10.1326 62.8656 10.1667C62.994 10.2009 63.1037 10.2844 63.1707 10.3991C63.23 10.518 63.2398 10.6555 63.1981 10.7816C63.1564 10.9078 63.0665 11.0123 62.9481 11.0724L60.5421 12.3734C60.4878 12.4004 60.4464 12.4478 60.427 12.5052C60.4075 12.5625 60.4115 12.6253 60.4381 12.6798C60.4691 12.7319 60.5195 12.7697 60.5782 12.7848C60.637 12.8 60.6993 12.7914 60.7517 12.7608L61.4107 12.4041L61.4707 12.3708L62.5554 11.7841C62.6706 11.7178 62.8073 11.6998 62.9357 11.7339C63.0641 11.768 63.1739 11.8514 63.2411 11.9661C63.3003 12.085 63.3102 12.2226 63.2685 12.3488C63.2268 12.475 63.1369 12.5796 63.0184 12.6398L61.3991 13.5154L61.1387 13.6541C61.0789 13.4923 60.9642 13.3566 60.8146 13.2708C60.665 13.1849 60.4899 13.1544 60.3201 13.1844L57.3711 13.7471C57.2852 13.7676 57.2023 13.7986 57.1241 13.8394C56.9054 13.6424 56.7225 13.4091 56.5834 13.1498C56.3849 12.7829 56.2778 12.3735 56.2714 11.9565C56.2649 11.5394 56.3593 11.1269 56.5464 10.7541C56.5484 10.7507 56.5484 10.7474 56.5484 10.7441L57.7844 7.98975C57.8357 7.86718 57.9334 7.76989 58.0562 7.71912C58.179 7.66834 58.3168 7.66821 58.4397 7.71875C58.5592 7.77733 58.6508 7.88071 58.6945 8.00642C58.7382 8.13214 58.7305 8.27002 58.6731 8.39009L58.2731 9.28076L58.9197 8.93108C58.9245 8.92844 58.9294 8.92681 58.9342 8.92518C58.9397 8.92332 58.9452 8.92146 58.9507 8.91808C58.9552 8.91535 58.9593 8.91231 58.9635 8.90928C58.9689 8.90529 58.9743 8.9013 58.9804 8.89808L61.5984 7.48209C61.7135 7.4158 61.8503 7.39777 61.9787 7.43193C62.1071 7.46609 62.2167 7.54967 62.2837 7.66442C62.343 7.78332 62.3528 7.92083 62.3111 8.04696C62.2694 8.17309 62.1795 8.27762 62.0611 8.33775L59.1707 9.90075C59.1226 9.92698 59.0868 9.97119 59.0712 10.0237C59.0556 10.0763 59.0614 10.1328 59.0874 10.1811L59.1001 10.2051C59.1263 10.2532 59.1705 10.289 59.223 10.3046C59.2756 10.3202 59.3321 10.3144 59.3804 10.2884L62.8004 8.43875C62.9155 8.37253 63.0522 8.35449 63.1805 8.38858C63.3089 8.42268 63.4186 8.50613 63.4857 8.62075C63.545 8.73965 63.5548 8.87717 63.5131 9.0033C63.4714 9.12943 63.3815 9.23396 63.2631 9.29409ZM59.3397 16.2064L62.8251 17.9184C62.9456 17.9738 63.0397 18.0745 63.0862 18.1987C63.1327 18.3229 63.1282 18.4605 63.0737 18.5814C63.0112 18.6985 62.905 18.7861 62.7782 18.8251C62.6514 18.8642 62.5143 18.8516 62.3967 18.7901L58.9127 17.0781C58.8636 17.0541 58.807 17.0505 58.7553 17.0681C58.7036 17.0857 58.661 17.1231 58.6367 17.1721L58.6244 17.1967C58.6005 17.2459 58.597 17.3025 58.6147 17.3542C58.6324 17.4059 58.6698 17.4485 58.7187 17.4727L61.1977 18.6907C61.3183 18.7462 61.412 18.847 61.4586 18.9713C61.5051 19.0955 61.5006 19.2331 61.4461 19.3541C61.3836 19.4711 61.2774 19.5586 61.1506 19.5976C61.0239 19.6366 60.8869 19.624 60.7694 19.5624L58.3174 18.3581C58.264 18.3295 58.2015 18.3232 58.1435 18.3406C58.0854 18.3579 58.0366 18.3976 58.0077 18.4508C57.9833 18.5062 57.9818 18.5691 58.0035 18.6256C58.0253 18.6822 58.0685 18.7279 58.1237 18.7527L59.9614 19.6558C60.0819 19.7112 60.1756 19.8119 60.2221 19.9361C60.2686 20.0603 60.2642 20.1978 60.2097 20.3187C60.1473 20.4358 60.0411 20.5234 59.9144 20.5625C59.7876 20.6015 59.6506 20.5889 59.5331 20.5274L57.8834 19.7167C57.8834 19.7167 56.3874 18.9691 56.3501 18.9358C55.8044 18.595 55.4046 18.0639 55.228 17.4453C55.0515 16.8266 55.1107 16.1645 55.3944 15.5871C55.578 15.2132 55.8491 14.8892 56.1847 14.6426C56.5203 14.396 56.9104 14.234 57.3221 14.1704C57.3237 14.1701 57.3251 14.1693 57.3265 14.1684C57.3281 14.1674 57.3297 14.1664 57.3317 14.1664L60.2881 13.5781C60.3522 13.5633 60.4186 13.5613 60.4835 13.5722C60.5483 13.5831 60.6104 13.6067 60.6662 13.6417C60.7219 13.6767 60.7702 13.7223 60.8083 13.7759C60.8464 13.8296 60.8735 13.8903 60.8881 13.9544C60.9095 14.0855 60.8783 14.2197 60.8013 14.3279C60.7242 14.4361 60.6076 14.5095 60.4767 14.5321L59.5207 14.7224L60.1797 15.0461C60.1842 15.0483 60.188 15.0511 60.1919 15.054C60.1968 15.0575 60.2018 15.0612 60.2081 15.0638C60.2128 15.0657 60.2174 15.0673 60.222 15.0689C60.2285 15.0711 60.2349 15.0733 60.2414 15.0764L62.9081 16.3871C63.0285 16.4425 63.1222 16.5433 63.1687 16.6675C63.2153 16.7916 63.2108 16.9292 63.1564 17.0501C63.0938 17.1671 62.9876 17.2546 62.8608 17.2936C62.734 17.3326 62.5969 17.32 62.4794 17.2584L59.5341 15.8114C59.4849 15.7874 59.4282 15.7839 59.3764 15.8016C59.3246 15.8192 59.282 15.8567 59.2577 15.9058L59.2457 15.9304C59.2218 15.9795 59.2183 16.0361 59.2359 16.0878C59.2535 16.1395 59.2908 16.1821 59.3397 16.2064Z" fill="#D4EEFC"/>
</svg>

<svg xmlns="http://www.w3.org/2000/svg" viewBox="0 0 76 28"><path fill="#1767CE" d="M0 0h75.333v28H0z"/><path fill="#fff" d="M6.667 21V7.001h4.593V21H6.667ZM17.509 9.23 20.151 21h-5.027L11.97 7.001h2.82a2.655 2.655 0 0 1 1.764.641c.491.404.829.964.956 1.587ZM20.841 21V7.001h4.594V21H20.84Zm8.063-8.675a2.78 2.78 0 0 1-2.425-1.39 2.737 2.737 0 0 1-.374-1.41 2.686 2.686 0 0 1 .374-1.4 2.813 2.813 0 0 1 3.825-1.005c.415.244.76.59 1.005 1.005.25.424.38.908.375 1.4.005.495-.125.982-.375 1.41a2.8 2.8 0 0 1-1.005 1.015c-.424.25-.908.38-1.4.375ZM32.394 21V7.001h4.593V21h-4.593Zm10.409-6.349c.013.014.111.175.296.483.184.309.424.703.719 1.183a373.133 373.133 0 0 1 1.863 3.056c.288.48.617 1.022.986 1.627H41.62l-.858-1.39c-.256-.414-.529-.861-.817-1.34-.29-.48-.576-.947-.859-1.4a71.148 71.148 0 0 1-.729-1.194 20.758 20.758 0 0 0-.424-.69 2.04 2.04 0 0 1-.335-.985c.02-.338.129-.665.315-.947.08-.132.224-.365.434-.7a210.264 210.264 0 0 0 1.598-2.602l.817-1.351.858-1.4h5.047l-3.904 6.368c-.12.19-.189.407-.197.632.013.235.095.461.236.65Z"/><path fill="#D4EEFC" fill-rule="evenodd" d="M66.876 21.542A10.666 10.666 0 1 0 51.792 6.458a10.666 10.666 0 0 0 15.084 15.084ZM63.263 9.294l-3.42 1.852.002-.003a.208.208 0 0 0-.084.28l.013.024a.207.207 0 0 0 .28.084l2.431-1.314a.503.503 0 0 1 .686.182.503.503 0 0 1-.223.673l-2.406 1.301a.23.23 0 0 0-.104.307.23.23 0 0 0 .314.08l.659-.356.06-.033 1.084-.587a.503.503 0 0 1 .686.182.504.504 0 0 1-.223.674l-1.619.875-.26.14a.736.736 0 0 0-.819-.47l-2.949.562c-.086.02-.169.052-.247.092a2.592 2.592 0 0 1-.578-3.085c.002-.003.002-.007.002-.01l1.236-2.754a.503.503 0 0 1 .656-.271.505.505 0 0 1 .233.671l-.4.89.647-.349.014-.006a.077.077 0 0 0 .017-.007l.013-.009a.133.133 0 0 1 .016-.01l2.618-1.417a.503.503 0 0 1 .686.182.503.503 0 0 1-.223.674L59.171 9.9a.207.207 0 0 0-.084.28l.013.024a.207.207 0 0 0 .28.083l3.42-1.85a.503.503 0 0 1 .686.183.503.503 0 0 1-.223.673Zm-3.923 6.912 3.485 1.712a.503.503 0 0 1 .249.663.502.502 0 0 1-.677.21l-3.484-1.713a.207.207 0 0 0-.276.094l-.013.025a.207.207 0 0 0 .095.276l2.479 1.218a.503.503 0 0 1 .248.663.502.502 0 0 1-.677.208l-2.452-1.204a.229.229 0 0 0-.31.093.23.23 0 0 0 .117.302l1.837.903a.502.502 0 0 1 .249.663.503.503 0 0 1-.677.208l-1.65-.81s-1.496-.748-1.533-.781a2.598 2.598 0 0 1-.165-4.293 2.588 2.588 0 0 1 1.142-.475l.005-.002 2.956-.588a.5.5 0 0 1 .6.376.504.504 0 0 1-.411.578l-.956.19.659.324a.077.077 0 0 1 .012.008l.016.01.014.005a.172.172 0 0 1 .02.007l2.666 1.311a.503.503 0 0 1 .248.663.503.503 0 0 1-.677.208l-2.945-1.447a.207.207 0 0 0-.276.095l-.012.024a.207.207 0 0 0 .094.276Z" clip-rule="evenodd"/></svg>
